views/1/public/assets/timer.svg

<svg fill="none" height="79" viewBox="0 0 79 79" width="79" xmlns="http://www.w3.org/2000/svg" xmlns:xlink="http://www.w3.org/1999/xlink"><filter id="a" color-interpolation-filters="sRGB" height="85" width="85" x="-3" y="-3"><feFlood flood-opacity="0" result="BackgroundImageFix"/><feBlend in="SourceGraphic" in2="BackgroundImageFix" mode="normal" result="shape"/><feGaussianBlur result="effect1_foregroundBlur_203_59" stdDeviation="15"/></filter><clipPath id="b"><path d="m0 0h79v79h-79z"/></clipPath><mask id="c" height="79" maskUnits="userSpaceOnUse" width="79" x="0" y="0"><path d="m79 0h-79v79h79z" fill="#fff"/></mask><g clip-path="url(#b)"><g mask="url(#c)"><path d="m39.5 79c21.8152 0 39.5-17.6848 39.5-39.5s-17.6848-39.5-39.5-39.5-39.5 17.6848-39.5 39.5 17.6848 39.5 39.5 39.5z" fill="#fff" fill-opacity=".01"/><g filter="url(#a)"><circle cx="39.5" cy="39.5" fill="#e346fc" r="12.5"/></g><path d="m79 39.5c0-21.8152-17.6848-39.5-39.5-39.5s-39.5 17.6848-39.5 39.5 17.6848 39.5 39.5 39.5 39.5-17.6848 39.5-39.5z" fill="#fff" fill-opacity=".06"/><path clip-rule="evenodd" d="m35.94 22.7c-.8284 0-1.5.6716-1.5 1.5s.6716 1.5 1.5 1.5h7.125c.8284 0 1.5-.6716 1.5-1.5s-.6716-1.5-1.5-1.5zm3.5625 7.7092c-6.3979 0-11.5625 5.1392-11.5625 11.4518s5.1646 11.4517 11.5625 11.4517 11.5625-5.1391 11.5625-11.4517-5.1646-11.4518-11.5625-11.4518zm-14.5625 11.4518c0-7.9935 6.5319-14.4518 14.5625-14.4518s14.5625 6.4583 14.5625 14.4518c0 7.9934-6.5319 14.4517-14.5625 14.4517s-14.5625-6.4583-14.5625-14.4517zm21.5054-6.8843c.5833.5882.5794 1.5381-.0089 2.1214l-5.8778 5.8287c-.5882.5834-1.538.5795-2.1213-.0087-.5833-.5883-.5793-1.538.0089-2.1213l5.8778-5.829c.5882-.5833 1.538-.5793 2.1213.0089z" fill="#e346fc" fill-rule="evenodd"/></g></g></svg>

<?xml version="1.0" encoding="UTF-8"?> <svg xmlns="http://www.w3.org/2000/svg" width="79" height="79" viewBox="0 0 79 79" fill="none"><g clip-path="url(#clip0_203_59)"><mask id="mask0_203_59" style="mask-type:luminance" maskUnits="userSpaceOnUse" x="0" y="0" width="79" height="79"><path d="M79 0H0V79H79V0Z" fill="white"></path></mask><g mask="url(#mask0_203_59)"><path d="M39.5 79C61.3152 79 79 61.3152 79 39.5C79 17.6848 61.3152 0 39.5 0C17.6848 0 0 17.6848 0 39.5C0 61.3152 17.6848 79 39.5 79Z" fill="white" fill-opacity="0.01"></path><g filter="url(#filter0_f_203_59)"><circle cx="39.5" cy="39.5" r="12.5" fill="#E346FC"></circle></g><path d="M79 39.5C79 17.6848 61.3152 0 39.5 0C17.6848 0 0 17.6848 0 39.5C0 61.3152 17.6848 79 39.5 79C61.3152 79 79 61.3152 79 39.5Z" fill="white" fill-opacity="0.06"></path><path fill-rule="evenodd" clip-rule="evenodd" d="M35.94 22.7C35.1116 22.7 34.44 23.3716 34.44 24.2C34.44 25.0284 35.1116 25.7 35.94 25.7H43.065C43.8934 25.7 44.565 25.0284 44.565 24.2C44.565 23.3716 43.8934 22.7 43.065 22.7H35.94ZM39.5025 30.4092C33.1046 30.4092 27.94 35.5484 27.94 41.861C27.94 48.1736 33.1046 53.3127 39.5025 53.3127C45.9004 53.3127 51.065 48.1736 51.065 41.861C51.065 35.5484 45.9004 30.4092 39.5025 30.4092ZM24.94 41.861C24.94 33.8675 31.4719 27.4092 39.5025 27.4092C47.5331 27.4092 54.065 33.8675 54.065 41.861C54.065 49.8544 47.5331 56.3127 39.5025 56.3127C31.4719 56.3127 24.94 49.8544 24.94 41.861ZM46.4454 34.9767C47.0287 35.5649 47.0248 36.5148 46.4365 37.0981L40.5587 42.9268C39.9705 43.5102 39.0207 43.5063 38.4374 42.9181C37.8541 42.3298 37.8581 41.3801 38.4463 40.7968L44.3241 34.9678C44.9123 34.3845 45.8621 34.3885 46.4454 34.9767Z" fill="#E346FC"></path></g></g><defs><filter id="filter0_f_203_59" x="-3" y="-3" width="85" height="85" color-interpolation-filters="sRGB"><feFlood flood-opacity="0" result="BackgroundImageFix"></feFlood><feBlend mode="normal" in="SourceGraphic" in2="BackgroundImageFix" result="shape"></feBlend><feGaussianBlur stdDeviation="15" result="effect1_foregroundBlur_203_59"></feGaussianBlur></filter><clipPath id="clip0_203_59"><rect width="79" height="79" fill="white"></rect></clipPath></defs></svg>
